!!!OTL: "Gang zur Liebsten" DES ABEND KANN ICH NICHT SCHLAFEN
!!!ARE: Europa, Mitteleuropa, Deutschland, Niederrhein
!!!SCT: Z1154
!!!YEM: Copyright 1995, estate of Helmut Schaffrath.
**kern
*ICvox
*Ivox
*M2/4
*k[]
*a:
{8e
=1
8.a
16b
8ccn
16b
16a
=2
8b
16b
16a
8.g#}
{16e
=3
8a
16a
16b
8ccn
16b
16a
=4
8b
8b
8e}
{16ccn
16dd
=5
8ee
16dd
16dd
8ee
16ffn
16ee
=6
8.dd
16ccn
8dd}
{16ee
16dd
=7
8.ccn
16b
16ccn
16dd
16ee
16ccn
=8
8b
16a
16a
8b}
{16ccn
16b
=9
4a
4g#
=10
4a
8r}
==
!!!AGN: Liebes - Lied
!!!ONB: ESAC (Essen Associative Code) Database: ZUCCAL
!!!AMT: simple duple
!!!AIN: vox
!!!EED: Helmut Schaffrath
!!!EEV: 1.0
*-
